images/50866496.svg

<?xml version="1.0" encoding="UTF-8"?>
<svg xmlns="http://www.w3.org/2000/svg" xmlns:xlink="http://www.w3.org/1999/xlink" width="300pt" height="300pt" viewBox="0 0 300 300" version="1.1">
<defs>
<g>
<symbol overflow="visible" id="glyph0-0">
<path style="stroke:none;" d="M 0.453125 1.59375 L 0.453125 -6.34375 L 4.953125 -6.34375 L 4.953125 1.59375 Z M 0.953125 1.09375 L 4.453125 1.09375 L 4.453125 -5.84375 L 0.953125 -5.84375 Z M 0.953125 1.09375 "/>
</symbol>
<symbol overflow="visible" id="glyph0-1">
<path style="stroke:none;" d="M 3.546875 -5.953125 C 2.898438 -5.953125 2.382812 -5.710938 2 -5.234375 C 1.625 -4.753906 1.4375 -4.101562 1.4375 -3.28125 C 1.4375 -2.445312 1.625 -1.789062 2 -1.3125 C 2.382812 -0.832031 2.898438 -0.59375 3.546875 -0.59375 C 4.191406 -0.59375 4.703125 -0.832031 5.078125 -1.3125 C 5.453125 -1.789062 5.640625 -2.445312 5.640625 -3.28125 C 5.640625 -4.101562 5.453125 -4.753906 5.078125 -5.234375 C 4.703125 -5.710938 4.191406 -5.953125 3.546875 -5.953125 Z M 3.546875 -6.6875 C 4.460938 -6.6875 5.195312 -6.375 5.75 -5.75 C 6.300781 -5.132812 6.578125 -4.3125 6.578125 -3.28125 C 6.578125 -2.238281 6.300781 -1.410156 5.75 -0.796875 C 5.195312 -0.179688 4.460938 0.125 3.546875 0.125 C 2.617188 0.125 1.878906 -0.179688 1.328125 -0.796875 C 0.773438 -1.410156 0.5 -2.238281 0.5 -3.28125 C 0.5 -4.3125 0.773438 -5.132812 1.328125 -5.75 C 1.878906 -6.375 2.617188 -6.6875 3.546875 -6.6875 Z M 3.546875 -6.6875 "/>
</symbol>
<symbol overflow="visible" id="glyph0-2">
<path style="stroke:none;" d="M 0.890625 -6.5625 L 2.078125 -6.5625 L 4.984375 -1.078125 L 4.984375 -6.5625 L 5.84375 -6.5625 L 5.84375 0 L 4.65625 0 L 1.75 -5.484375 L 1.75 0 L 0.890625 0 Z M 0.890625 -6.5625 "/>
</symbol>
<symbol overflow="visible" id="glyph0-3">
<path style="stroke:none;" d="M 0.890625 -6.5625 L 1.765625 -6.5625 L 1.765625 -3.875 L 5 -3.875 L 5 -6.5625 L 5.890625 -6.5625 L 5.890625 0 L 5 0 L 5 -3.125 L 1.765625 -3.125 L 1.765625 0 L 0.890625 0 Z M 0.890625 -6.5625 "/>
</symbol>
</g>
</defs>
<g id="surface24829">
<rect x="0" y="0" width="300" height="300" style="fill:rgb(100%,100%,100%);fill-opacity:1;stroke:none;"/>
<path style="fill:none;stroke-width:1.2;stroke-linecap:butt;stroke-linejoin:miter;stroke:rgb(100%,0%,0%);stroke-opacity:1;stroke-miterlimit:10;" d="M 34.492188 119.433594 L 46.328125 122.648438 "/>
<path style="fill:none;stroke-width:1.2;stroke-linecap:butt;stroke-linejoin:miter;stroke:rgb(0%,0%,0%);stroke-opacity:1;stroke-miterlimit:10;" d="M 46.328125 122.648438 L 58.164062 125.859375 "/>
<path style="fill:none;stroke-width:1.2;stroke-linecap:butt;stroke-linejoin:miter;stroke:rgb(100%,0%,0%);stroke-opacity:1;stroke-miterlimit:10;" d="M 36.007812 113.863281 L 47.839844 117.078125 "/>
<path style="fill:none;stroke-width:1.2;stroke-linecap:butt;stroke-linejoin:miter;stroke:rgb(0%,0%,0%);stroke-opacity:1;stroke-miterlimit:10;" d="M 47.839844 117.078125 L 59.675781 120.289062 "/>
<path style=" stroke:none;fill-rule:nonzero;fill:rgb(100%,100%,100%);fill-opacity:1;" d="M 27.25 111.148438 L 35.25 111.148438 L 35.25 122.148438 L 27.25 122.148438 Z M 27.25 111.148438 "/>
<g style="fill:rgb(100%,0%,0%);fill-opacity:1;">
  <use xlink:href="#glyph0-1" x="27.25" y="119.811523"/>
</g>
<path style="fill:none;stroke-width:1.2;stroke-linecap:butt;stroke-linejoin:miter;stroke:rgb(0%,0%,0%);stroke-opacity:1;stroke-miterlimit:10;" d="M 58.917969 123.074219 L 67.621094 114.433594 "/>
<path style="fill:none;stroke-width:1.2;stroke-linecap:butt;stroke-linejoin:miter;stroke:rgb(0%,0%,100%);stroke-opacity:1;stroke-miterlimit:10;" d="M 67.621094 114.433594 L 76.320312 105.789062 "/>
<path style="fill:none;stroke-width:1.2;stroke-linecap:butt;stroke-linejoin:miter;stroke:rgb(0%,0%,0%);stroke-opacity:1;stroke-miterlimit:10;" d="M 58.917969 123.074219 L 65.1875 146.785156 "/>
<path style="fill:none;stroke-width:1.2;stroke-linecap:butt;stroke-linejoin:miter;stroke:rgb(0%,0%,100%);stroke-opacity:1;stroke-miterlimit:10;" d="M 76.320312 105.789062 L 73.183594 93.933594 "/>
<path style="fill:none;stroke-width:1.2;stroke-linecap:butt;stroke-linejoin:miter;stroke:rgb(0%,0%,0%);stroke-opacity:1;stroke-miterlimit:10;" d="M 73.183594 93.933594 L 70.050781 82.078125 "/>
<path style=" stroke:none;fill-rule:nonzero;fill:rgb(100%,100%,100%);fill-opacity:1;" d="M 69.320312 100.289062 L 83.320312 100.289062 L 83.320312 111.289062 L 69.320312 111.289062 Z M 69.320312 100.289062 "/>
<g style="fill:rgb(0%,0%,100%);fill-opacity:1;">
  <use xlink:href="#glyph0-2" x="69.320312" y="108.952148"/>
  <use xlink:href="#glyph0-3" x="76.297852" y="108.952148"/>
</g>
<path style="fill:none;stroke-width:1.2;stroke-linecap:butt;stroke-linejoin:miter;stroke:rgb(0%,0%,0%);stroke-opacity:1;stroke-miterlimit:10;" d="M 65.1875 146.785156 L 88.855469 153.214844 "/>
<path style="fill:none;stroke-width:1.2;stroke-linecap:butt;stroke-linejoin:miter;stroke:rgb(0%,0%,0%);stroke-opacity:1;stroke-miterlimit:10;" d="M 66.042969 153 L 84.976562 158.140625 "/>
<path style="fill:none;stroke-width:1.2;stroke-linecap:butt;stroke-linejoin:miter;stroke:rgb(0%,0%,0%);stroke-opacity:1;stroke-miterlimit:10;" d="M 47.789062 164.070312 L 65.1875 146.785156 "/>
<path style="fill:none;stroke-width:1.2;stroke-linecap:butt;stroke-linejoin:miter;stroke:rgb(0%,0%,0%);stroke-opacity:1;stroke-miterlimit:10;" d="M 88.855469 153.214844 L 95.125 176.925781 "/>
<path style="fill:none;stroke-width:1.2;stroke-linecap:butt;stroke-linejoin:miter;stroke:rgb(0%,0%,0%);stroke-opacity:1;stroke-miterlimit:10;" d="M 95.125 176.925781 L 106.960938 180.136719 "/>
<path style="fill:none;stroke-width:1.2;stroke-linecap:butt;stroke-linejoin:miter;stroke:rgb(0%,0%,100%);stroke-opacity:1;stroke-miterlimit:10;" d="M 106.960938 180.136719 L 118.796875 183.351562 "/>
<path style="fill:none;stroke-width:1.2;stroke-linecap:butt;stroke-linejoin:miter;stroke:rgb(0%,0%,0%);stroke-opacity:1;stroke-miterlimit:10;" d="M 95.125 176.925781 L 77.726562 194.210938 "/>
<path style="fill:none;stroke-width:1.2;stroke-linecap:butt;stroke-linejoin:miter;stroke:rgb(0%,0%,0%);stroke-opacity:1;stroke-miterlimit:10;" d="M 89.320312 174.558594 L 75.398438 188.386719 "/>
<path style="fill:none;stroke-width:1.2;stroke-linecap:butt;stroke-linejoin:miter;stroke:rgb(0%,0%,100%);stroke-opacity:1;stroke-miterlimit:10;" d="M 118.796875 183.351562 L 127.496094 174.707031 "/>
<path style="fill:none;stroke-width:1.2;stroke-linecap:butt;stroke-linejoin:miter;stroke:rgb(0%,0%,0%);stroke-opacity:1;stroke-miterlimit:10;" d="M 127.496094 174.707031 L 136.195312 166.066406 "/>
<path style=" stroke:none;fill-rule:nonzero;fill:rgb(100%,100%,100%);fill-opacity:1;" d="M 111.796875 177.851562 L 125.796875 177.851562 L 125.796875 188.851562 L 111.796875 188.851562 Z M 111.796875 177.851562 "/>
<g style="fill:rgb(0%,0%,100%);fill-opacity:1;">
  <use xlink:href="#glyph0-2" x="111.796875" y="186.514648"/>
  <use xlink:href="#glyph0-3" x="118.774414" y="186.514648"/>
</g>
<path style="fill:none;stroke-width:1.2;stroke-linecap:butt;stroke-linejoin:miter;stroke:rgb(0%,0%,0%);stroke-opacity:1;stroke-miterlimit:10;" d="M 136.195312 166.066406 L 133.0625 154.210938 "/>
<path style="fill:none;stroke-width:1.2;stroke-linecap:butt;stroke-linejoin:miter;stroke:rgb(0%,0%,100%);stroke-opacity:1;stroke-miterlimit:10;" d="M 133.0625 154.210938 L 129.925781 142.355469 "/>
<path style="fill:none;stroke-width:1.2;stroke-linecap:butt;stroke-linejoin:miter;stroke:rgb(0%,0%,0%);stroke-opacity:1;stroke-miterlimit:10;" d="M 141.148438 162.21875 L 138.640625 152.734375 "/>
<path style="fill:none;stroke-width:1.2;stroke-linecap:butt;stroke-linejoin:miter;stroke:rgb(0%,0%,100%);stroke-opacity:1;stroke-miterlimit:10;" d="M 138.640625 152.734375 L 136.132812 143.25 "/>
<path style="fill:none;stroke-width:1.2;stroke-linecap:butt;stroke-linejoin:miter;stroke:rgb(0%,0%,0%);stroke-opacity:1;stroke-miterlimit:10;" d="M 159.863281 172.492188 L 136.195312 166.066406 "/>
<path style="fill:none;stroke-width:1.2;stroke-linecap:butt;stroke-linejoin:miter;stroke:rgb(0%,0%,100%);stroke-opacity:1;stroke-miterlimit:10;" d="M 129.925781 142.355469 L 138.625 133.710938 "/>
<path style="fill:none;stroke-width:1.2;stroke-linecap:butt;stroke-linejoin:miter;stroke:rgb(0%,0%,0%);stroke-opacity:1;stroke-miterlimit:10;" d="M 138.625 133.710938 L 147.328125 125.070312 "/>
<path style=" stroke:none;fill-rule:nonzero;fill:rgb(100%,100%,100%);fill-opacity:1;" d="M 126.925781 136.855469 L 133.925781 136.855469 L 133.925781 147.855469 L 126.925781 147.855469 Z M 126.925781 136.855469 "/>
<g style="fill:rgb(0%,0%,100%);fill-opacity:1;">
  <use xlink:href="#glyph0-2" x="126.925781" y="145.518555"/>
</g>
<path style="fill:none;stroke-width:1.2;stroke-linecap:butt;stroke-linejoin:miter;stroke:rgb(0%,0%,0%);stroke-opacity:1;stroke-miterlimit:10;" d="M 147.328125 125.070312 L 159.160156 128.285156 "/>
<path style="fill:none;stroke-width:1.2;stroke-linecap:butt;stroke-linejoin:miter;stroke:rgb(0%,0%,100%);stroke-opacity:1;stroke-miterlimit:10;" d="M 159.160156 128.285156 L 170.996094 131.496094 "/>
<path style="fill:none;stroke-width:1.2;stroke-linecap:butt;stroke-linejoin:miter;stroke:rgb(0%,0%,0%);stroke-opacity:1;stroke-miterlimit:10;" d="M 148.179688 131.28125 L 157.648438 133.851562 "/>
<path style="fill:none;stroke-width:1.2;stroke-linecap:butt;stroke-linejoin:miter;stroke:rgb(0%,0%,100%);stroke-opacity:1;stroke-miterlimit:10;" d="M 157.648438 133.851562 L 167.117188 136.421875 "/>
<path style="fill:none;stroke-width:1.2;stroke-linecap:butt;stroke-linejoin:miter;stroke:rgb(0%,0%,0%);stroke-opacity:1;stroke-miterlimit:10;" d="M 147.328125 125.070312 L 144.191406 113.214844 "/>
<path style="fill:none;stroke-width:1.2;stroke-linecap:butt;stroke-linejoin:miter;stroke:rgb(0%,0%,100%);stroke-opacity:1;stroke-miterlimit:10;" d="M 144.191406 113.214844 L 141.058594 101.359375 "/>
<path style="fill:none;stroke-width:1.2;stroke-linecap:butt;stroke-linejoin:miter;stroke:rgb(0%,0%,100%);stroke-opacity:1;stroke-miterlimit:10;" d="M 170.996094 131.496094 L 174.128906 143.351562 "/>
<path style="fill:none;stroke-width:1.2;stroke-linecap:butt;stroke-linejoin:miter;stroke:rgb(0%,0%,0%);stroke-opacity:1;stroke-miterlimit:10;" d="M 174.128906 143.351562 L 177.265625 155.207031 "/>
<path style=" stroke:none;fill-rule:nonzero;fill:rgb(100%,100%,100%);fill-opacity:1;" d="M 167.996094 125.996094 L 174.996094 125.996094 L 174.996094 136.996094 L 167.996094 136.996094 Z M 167.996094 125.996094 "/>
<g style="fill:rgb(0%,0%,100%);fill-opacity:1;">
  <use xlink:href="#glyph0-2" x="167.996094" y="134.65918"/>
</g>
<path style="fill:none;stroke-width:1.2;stroke-linecap:butt;stroke-linejoin:miter;stroke:rgb(0%,0%,0%);stroke-opacity:1;stroke-miterlimit:10;" d="M 177.265625 155.207031 L 188.171875 160.8125 "/>
<path style="fill:none;stroke-width:1.2;stroke-linecap:butt;stroke-linejoin:miter;stroke:rgb(0%,0%,100%);stroke-opacity:1;stroke-miterlimit:10;" d="M 188.171875 160.8125 L 199.082031 166.414062 "/>
<path style="fill:none;stroke-width:1.2;stroke-linecap:butt;stroke-linejoin:miter;stroke:rgb(0%,0%,0%);stroke-opacity:1;stroke-miterlimit:10;" d="M 159.863281 172.492188 L 177.265625 155.207031 "/>
<path style="fill:none;stroke-width:1.2;stroke-linecap:butt;stroke-linejoin:miter;stroke:rgb(0%,0%,0%);stroke-opacity:1;stroke-miterlimit:10;" d="M 157.539062 166.671875 L 171.457031 152.84375 "/>
<path style="fill:none;stroke-width:1.2;stroke-linecap:butt;stroke-linejoin:miter;stroke:rgb(0%,0%,100%);stroke-opacity:1;stroke-miterlimit:10;" d="M 199.082031 166.414062 L 195.164062 190.625 "/>
<path style="fill:none;stroke-width:1.2;stroke-linecap:butt;stroke-linejoin:miter;stroke:rgb(0%,0%,100%);stroke-opacity:1;stroke-miterlimit:10;" d="M 199.082031 166.414062 L 210.027344 160.882812 "/>
<path style="fill:none;stroke-width:1.2;stroke-linecap:butt;stroke-linejoin:miter;stroke:rgb(0%,0%,0%);stroke-opacity:1;stroke-miterlimit:10;" d="M 210.027344 160.882812 L 220.96875 155.351562 "/>
<path style=" stroke:none;fill-rule:nonzero;fill:rgb(100%,100%,100%);fill-opacity:1;" d="M 196.082031 160.914062 L 203.082031 160.914062 L 203.082031 171.914062 L 196.082031 171.914062 Z M 196.082031 160.914062 "/>
<g style="fill:rgb(0%,0%,100%);fill-opacity:1;">
  <use xlink:href="#glyph0-2" x="196.082031" y="169.577148"/>
</g>
<path style="fill:none;stroke-width:1.2;stroke-linecap:butt;stroke-linejoin:miter;stroke:rgb(0%,0%,100%);stroke-opacity:1;stroke-miterlimit:10;" d="M 195.164062 190.625 L 183.046875 192.503906 "/>
<path style="fill:none;stroke-width:1.2;stroke-linecap:butt;stroke-linejoin:miter;stroke:rgb(0%,0%,0%);stroke-opacity:1;stroke-miterlimit:10;" d="M 183.046875 192.503906 L 170.925781 194.382812 "/>
<path style="fill:none;stroke-width:1.2;stroke-linecap:butt;stroke-linejoin:miter;stroke:rgb(0%,0%,100%);stroke-opacity:1;stroke-miterlimit:10;" d="M 191.855469 185.300781 L 182.160156 186.800781 "/>
<path style="fill:none;stroke-width:1.2;stroke-linecap:butt;stroke-linejoin:miter;stroke:rgb(0%,0%,0%);stroke-opacity:1;stroke-miterlimit:10;" d="M 182.160156 186.800781 L 172.464844 188.304688 "/>
<path style=" stroke:none;fill-rule:nonzero;fill:rgb(100%,100%,100%);fill-opacity:1;" d="M 192.164062 185.125 L 199.164062 185.125 L 199.164062 196.125 L 192.164062 196.125 Z M 192.164062 185.125 "/>
<g style="fill:rgb(0%,0%,100%);fill-opacity:1;">
  <use xlink:href="#glyph0-2" x="192.164062" y="193.788086"/>
</g>
<path style="fill:none;stroke-width:1.2;stroke-linecap:butt;stroke-linejoin:miter;stroke:rgb(0%,0%,0%);stroke-opacity:1;stroke-miterlimit:10;" d="M 170.925781 194.382812 L 159.863281 172.492188 "/>
<path style="fill:none;stroke-width:1.2;stroke-linecap:butt;stroke-linejoin:miter;stroke:rgb(0%,0%,0%);stroke-opacity:1;stroke-miterlimit:10;" d="M 220.96875 155.351562 L 241.496094 168.78125 "/>
<path style="fill:none;stroke-width:1.2;stroke-linecap:butt;stroke-linejoin:miter;stroke:rgb(0%,0%,0%);stroke-opacity:1;stroke-miterlimit:10;" d="M 226.183594 151.867188 L 242.601562 162.605469 "/>
<path style="fill:none;stroke-width:1.2;stroke-linecap:butt;stroke-linejoin:miter;stroke:rgb(0%,0%,0%);stroke-opacity:1;stroke-miterlimit:10;" d="M 222.335938 130.863281 L 220.96875 155.351562 "/>
<path style="fill:none;stroke-width:1.2;stroke-linecap:butt;stroke-linejoin:miter;stroke:rgb(0%,0%,0%);stroke-opacity:1;stroke-miterlimit:10;" d="M 241.496094 168.78125 L 263.386719 157.71875 "/>
<path style="fill:none;stroke-width:1.2;stroke-linecap:butt;stroke-linejoin:miter;stroke:rgb(0%,0%,0%);stroke-opacity:1;stroke-miterlimit:10;" d="M 263.386719 157.71875 L 264.75 133.230469 "/>
<path style="fill:none;stroke-width:1.2;stroke-linecap:butt;stroke-linejoin:miter;stroke:rgb(0%,0%,0%);stroke-opacity:1;stroke-miterlimit:10;" d="M 257.757812 154.949219 L 258.851562 135.355469 "/>
<path style="fill:none;stroke-width:1.2;stroke-linecap:butt;stroke-linejoin:miter;stroke:rgb(0%,0%,0%);stroke-opacity:1;stroke-miterlimit:10;" d="M 264.75 133.230469 L 244.226562 119.804688 "/>
<path style="fill:none;stroke-width:1.2;stroke-linecap:butt;stroke-linejoin:miter;stroke:rgb(0%,0%,0%);stroke-opacity:1;stroke-miterlimit:10;" d="M 244.226562 119.804688 L 222.335938 130.863281 "/>
<path style="fill:none;stroke-width:1.2;stroke-linecap:butt;stroke-linejoin:miter;stroke:rgb(0%,0%,0%);stroke-opacity:1;stroke-miterlimit:10;" d="M 244.640625 126.058594 L 227.128906 134.910156 "/>
<path style="fill:none;stroke-width:1.2;stroke-linecap:butt;stroke-linejoin:miter;stroke:rgb(0%,0%,100%);stroke-opacity:1;stroke-miterlimit:10;" d="M 141.058594 101.359375 L 149.757812 92.714844 "/>
<path style="fill:none;stroke-width:1.2;stroke-linecap:butt;stroke-linejoin:miter;stroke:rgb(0%,0%,0%);stroke-opacity:1;stroke-miterlimit:10;" d="M 149.757812 92.714844 L 158.457031 84.074219 "/>
<path style=" stroke:none;fill-rule:nonzero;fill:rgb(100%,100%,100%);fill-opacity:1;" d="M 134.058594 95.859375 L 148.058594 95.859375 L 148.058594 106.859375 L 134.058594 106.859375 Z M 134.058594 95.859375 "/>
<g style="fill:rgb(0%,0%,100%);fill-opacity:1;">
  <use xlink:href="#glyph0-2" x="134.058594" y="104.522461"/>
  <use xlink:href="#glyph0-3" x="141.036133" y="104.522461"/>
</g>
<path style="fill:none;stroke-width:1.2;stroke-linecap:butt;stroke-linejoin:miter;stroke:rgb(0%,0%,0%);stroke-opacity:1;stroke-miterlimit:10;" d="M 77.726562 194.210938 L 54.058594 187.78125 "/>
<path style="fill:none;stroke-width:1.2;stroke-linecap:butt;stroke-linejoin:miter;stroke:rgb(0%,0%,0%);stroke-opacity:1;stroke-miterlimit:10;" d="M 77.726562 194.210938 L 83.996094 217.921875 "/>
<path style="fill:none;stroke-width:1.2;stroke-linecap:butt;stroke-linejoin:miter;stroke:rgb(0%,0%,0%);stroke-opacity:1;stroke-miterlimit:10;" d="M 54.058594 187.78125 L 47.789062 164.070312 "/>
<path style="fill:none;stroke-width:1.2;stroke-linecap:butt;stroke-linejoin:miter;stroke:rgb(0%,0%,0%);stroke-opacity:1;stroke-miterlimit:10;" d="M 59.007812 183.9375 L 53.992188 164.96875 "/>
</g>
</svg>

<svg xmlns="http://www.w3.org/2000/svg" xmlns:xlink="http://www.w3.org/1999/xlink" width="300pt" height="300pt" viewBox="0 0 300 300"><defs><symbol overflow="visible"><path d="M.453 1.594v-7.938h4.5v7.938zm.5-.5h3.5v-6.938h-3.5zm0 0"/></symbol><symbol overflow="visible" id="a"><path d="M3.547-5.953c-.65 0-1.164.242-1.547.72-.375.48-.563 1.13-.563 1.952 0 .835.188 1.49.563 1.967.383.48.898.72 1.547.72.644 0 1.156-.24 1.53-.72.376-.476.564-1.132.564-1.968 0-.822-.187-1.474-.562-1.954-.375-.477-.887-.72-1.53-.72zm0-.734c.914 0 1.648.312 2.203.937.55.617.828 1.438.828 2.47 0 1.042-.277 1.87-.828 2.483-.555.617-1.29.922-2.203.922-.93 0-1.668-.305-2.22-.922C.774-1.41.5-2.237.5-3.28c0-1.033.273-1.853.828-2.47.55-.625 1.29-.938 2.22-.938zm0 0"/></symbol><symbol overflow="visible" id="b"><path d="M.89-6.563H2.08l2.906 5.485v-5.484h.86V0H4.656L1.75-5.484V0H.89zm0 0"/></symbol><symbol overflow="visible" id="c"><path d="M.89-6.563h.876v2.688H5v-2.688h.89V0H5v-3.125H1.766V0H.89zm0 0"/></symbol></defs><g><path fill="#fff" d="M0 0h300v300H0z"/><path d="M34.492 119.434l11.836 3.214" stroke-width="1.2" stroke="#f00" stroke-miterlimit="10" fill="none"/><path d="M46.328 122.648l11.836 3.21" stroke-width="1.2" stroke="#000" stroke-miterlimit="10" fill="none"/><path d="M36.008 113.863l11.832 3.215" stroke-width="1.2" stroke="#f00" stroke-miterlimit="10" fill="none"/><path d="M47.84 117.078l11.836 3.21" stroke-width="1.2" stroke="#000" stroke-miterlimit="10" fill="none"/><path d="M27.25 111.148h8v11h-8zm0 0" fill="#fff"/><use xlink:href="#a" x="27.25" y="119.812" fill="#f00"/><path d="M58.918 123.074l8.703-8.64" stroke-width="1.2" stroke="#000" stroke-miterlimit="10" fill="none"/><path d="M67.62 114.434l8.7-8.645" stroke-width="1.2" stroke="#00f" stroke-miterlimit="10" fill="none"/><path d="M58.918 123.074l6.27 23.71" stroke-width="1.2" stroke="#000" stroke-miterlimit="10" fill="none"/><path d="M76.32 105.79l-3.136-11.856" stroke-width="1.2" stroke="#00f" stroke-miterlimit="10" fill="none"/><path d="M73.184 93.934L70.05 82.078" stroke-width="1.2" stroke="#000" stroke-miterlimit="10" fill="none"/><path d="M69.32 100.29h14v11h-14zm0 0" fill="#fff"/><g fill="#00f"><use xlink:href="#b" x="69.32" y="108.952"/><use xlink:href="#c" x="76.298" y="108.952"/></g><path d="M65.188 146.785l23.667 6.43M66.043 153l18.934 5.14M47.79 164.07l17.398-17.285M88.855 153.215l6.27 23.71M95.125 176.926l11.836 3.21" stroke-width="1.2" stroke="#000" stroke-miterlimit="10" fill="none"/><path d="M106.96 180.137l11.837 3.215" stroke-width="1.2" stroke="#00f" stroke-miterlimit="10" fill="none"/><path d="M95.125 176.926L77.727 194.21M89.32 174.56l-13.922 13.827" stroke-width="1.2" stroke="#000" stroke-miterlimit="10" fill="none"/><path d="M118.797 183.352l8.7-8.645" stroke-width="1.2" stroke="#00f" stroke-miterlimit="10" fill="none"/><path d="M127.496 174.707l8.7-8.64" stroke-width="1.2" stroke="#000" stroke-miterlimit="10" fill="none"/><path d="M111.797 177.852h14v11h-14zm0 0" fill="#fff"/><g fill="#00f"><use xlink:href="#b" x="111.797" y="186.515"/><use xlink:href="#c" x="118.774" y="186.515"/></g><path d="M136.195 166.066l-3.132-11.855" stroke-width="1.2" stroke="#000" stroke-miterlimit="10" fill="none"/><path d="M133.063 154.21l-3.137-11.855" stroke-width="1.2" stroke="#00f" stroke-miterlimit="10" fill="none"/><path d="M141.148 162.22l-2.507-9.486" stroke-width="1.2" stroke="#000" stroke-miterlimit="10" fill="none"/><path d="M138.64 152.734l-2.507-9.484" stroke-width="1.2" stroke="#00f" stroke-miterlimit="10" fill="none"/><path d="M159.863 172.492l-23.668-6.426" stroke-width="1.2" stroke="#000" stroke-miterlimit="10" fill="none"/><path d="M129.926 142.355l8.7-8.644" stroke-width="1.2" stroke="#00f" stroke-miterlimit="10" fill="none"/><path d="M138.625 133.71l8.703-8.64" stroke-width="1.2" stroke="#000" stroke-miterlimit="10" fill="none"/><path d="M126.926 136.855h7v11h-7zm0 0" fill="#fff"/><use xlink:href="#b" x="126.926" y="145.519" fill="#00f"/><path d="M147.328 125.07l11.832 3.215" stroke-width="1.2" stroke="#000" stroke-miterlimit="10" fill="none"/><path d="M159.16 128.285l11.836 3.21" stroke-width="1.2" stroke="#00f" stroke-miterlimit="10" fill="none"/><path d="M148.18 131.28l9.468 2.572" stroke-width="1.2" stroke="#000" stroke-miterlimit="10" fill="none"/><path d="M157.648 133.852l9.47 2.57" stroke-width="1.2" stroke="#00f" stroke-miterlimit="10" fill="none"/><path d="M147.328 125.07l-3.137-11.855" stroke-width="1.2" stroke="#000" stroke-miterlimit="10" fill="none"/><path d="M144.19 113.215l-3.13-11.856M170.996 131.496l3.133 11.856" stroke-width="1.2" stroke="#00f" stroke-miterlimit="10" fill="none"/><path d="M174.13 143.352l3.136 11.855" stroke-width="1.2" stroke="#000" stroke-miterlimit="10" fill="none"/><path d="M167.996 125.996h7v11h-7zm0 0" fill="#fff"/><use xlink:href="#b" x="167.996" y="134.659" fill="#00f"/><path d="M177.266 155.207l10.906 5.606" stroke-width="1.2" stroke="#000" stroke-miterlimit="10" fill="none"/><path d="M188.172 160.813l10.91 5.6" stroke-width="1.2" stroke="#00f" stroke-miterlimit="10" fill="none"/><path d="M159.863 172.492l17.403-17.285M157.54 166.672l13.917-13.828" stroke-width="1.2" stroke="#000" stroke-miterlimit="10" fill="none"/><path d="M199.082 166.414l-3.918 24.21M199.082 166.414l10.945-5.53" stroke-width="1.2" stroke="#00f" stroke-miterlimit="10" fill="none"/><path d="M210.027 160.883l10.942-5.53" stroke-width="1.2" stroke="#000" stroke-miterlimit="10" fill="none"/><path d="M196.082 160.914h7v11h-7zm0 0" fill="#fff"/><use xlink:href="#b" x="196.082" y="169.577" fill="#00f"/><path d="M195.164 190.625l-12.117 1.88" stroke-width="1.2" stroke="#00f" stroke-miterlimit="10" fill="none"/><path d="M183.047 192.504l-12.12 1.88" stroke-width="1.2" stroke="#000" stroke-miterlimit="10" fill="none"/><path d="M191.855 185.3l-9.695 1.5" stroke-width="1.2" stroke="#00f" stroke-miterlimit="10" fill="none"/><path d="M182.16 186.8l-9.695 1.505" stroke-width="1.2" stroke="#000" stroke-miterlimit="10" fill="none"/><path d="M192.164 185.125h7v11h-7zm0 0" fill="#fff"/><use xlink:href="#b" x="192.164" y="193.788" fill="#00f"/><path d="M170.926 194.383l-11.063-21.89M220.97 155.352l20.526 13.43M226.184 151.867l16.418 10.738M222.336 130.863l-1.367 24.49M241.496 168.78l21.89-11.06M263.387 157.72l1.363-24.49M257.758 154.95l1.094-19.595M264.75 133.23l-20.523-13.425M244.227 119.805l-21.89 11.058M244.64 126.06l-17.51 8.85" stroke-width="1.2" stroke="#000" stroke-miterlimit="10" fill="none"/><path d="M141.06 101.36l8.698-8.645" stroke-width="1.2" stroke="#00f" stroke-miterlimit="10" fill="none"/><path d="M149.758 92.715l8.7-8.64" stroke-width="1.2" stroke="#000" stroke-miterlimit="10" fill="none"/><path d="M134.06 95.86h14v11h-14zm0 0" fill="#fff"/><g fill="#00f"><use xlink:href="#b" x="134.059" y="104.522"/><use xlink:href="#c" x="141.036" y="104.522"/></g><path d="M77.727 194.21l-23.668-6.43M77.727 194.21l6.27 23.712M54.06 187.78l-6.27-23.71M59.008 183.938l-5.016-18.97" stroke-width="1.2" stroke="#000" stroke-miterlimit="10" fill="none"/></g></svg>
